svg/SJJB-OpenStreetMapIcons/barrier/cycle_barrier.svg

<svg xmlns="http://www.w3.org/2000/svg" viewBox="0 0 580 580"><path d="m66.28 1.768c-41.34 0-64.57 21.371-64.57 65.04v450.12c0 40.844 20.895 62.23 62.19 62.23h452.02c41.31 0 62.23-20.315 62.23-62.23v-450.12c0-42.601-20.922-65.04-63.52-65.04-.004 0-448.5-.143-448.35 0z" fill="#111" stroke="#eee" stroke-width="3.408"/><g transform="translate(-9.201 4.465)" fill="none" stroke="#fff" stroke-linejoin="round" stroke-linecap="round"><path stroke-width="50" d="m221.75 147l-66 344.85"/><g stroke-width="35"><path d="m79.945 499.45v-287.55"/><path d="m82.15 255.08h125.4"/></g><path stroke-width="50" d="m382.55 147l66 344.85"/><g stroke-width="35"><path d="m524.35 499.45v-287.55"/><path d="m522.15 255.08h-125.4"/></g></g></svg>

<?xml version="1.0" encoding="UTF-8" standalone="no"?>
<!-- Created with Inkscape (http://www.inkscape.org/) -->

<svg
   xmlns:dc="http://purl.org/dc/elements/1.1/"
   xmlns:cc="http://creativecommons.org/ns#"
   xmlns:rdf="http://www.w3.org/1999/02/22-rdf-syntax-ns#"
   xmlns:svg="http://www.w3.org/2000/svg"
   xmlns="http://www.w3.org/2000/svg"
   xmlns:sodipodi="http://sodipodi.sourceforge.net/DTD/sodipodi-0.dtd"
   xmlns:inkscape="http://www.inkscape.org/namespaces/inkscape"
   version="1.0"
   width="580"
   height="580"
   id="svg2"
   sodipodi:version="0.32"
   inkscape:version="0.47 r22583"
   sodipodi:docname="barrier_blocks.svg"
   inkscape:output_extension="org.inkscape.output.svg.inkscape">
  <metadata
     id="metadata2975">
    <rdf:RDF>
      <cc:Work
         rdf:about="">
        <dc:format>image/svg+xml</dc:format>
        <dc:type
           rdf:resource="http://purl.org/dc/dcmitype/StillImage" />
        <cc:license
           rdf:resource="http://web.resource.org/cc/PublicDomain" />
        <dc:language>en</dc:language>
        <dc:title></dc:title>
      </cc:Work>
    </rdf:RDF>
  </metadata>
  <sodipodi:namedview
     inkscape:window-height="973"
     inkscape:window-width="1280"
     inkscape:pageshadow="2"
     inkscape:pageopacity="0.0"
     guidetolerance="10.0"
     gridtolerance="10.0"
     objecttolerance="10.0"
     borderopacity="1.0"
     bordercolor="#666666"
     pagecolor="#ffffff"
     id="base"
     inkscape:zoom="0.92167712"
     inkscape:cx="367.55215"
     inkscape:cy="246.62462"
     inkscape:window-x="0"
     inkscape:window-y="0"
     inkscape:current-layer="svg2"
     showgrid="false"
     inkscape:window-maximized="1" />
  <defs
     id="defs4">
    <inkscape:perspective
       sodipodi:type="inkscape:persp3d"
       inkscape:vp_x="0 : 290 : 1"
       inkscape:vp_y="0 : 1000 : 0"
       inkscape:vp_z="580 : 290 : 1"
       inkscape:persp3d-origin="290 : 193.33333 : 1"
       id="perspective2441" />
    <inkscape:perspective
       id="perspective3452"
       inkscape:persp3d-origin="30 : 20 : 1"
       inkscape:vp_z="60 : 30 : 1"
       inkscape:vp_y="0 : 1000 : 0"
       inkscape:vp_x="0 : 30 : 1"
       sodipodi:type="inkscape:persp3d" />
    <symbol
       viewBox="244.5 110 489 219.9"
       id="symbol-university">
      <path
         id="path4460"
         d="M79,43l57,119c0,0,21-96,104-96s124,106,124,106l43-133l82-17L0,17L79,43z" />
      <path
         id="path4462"
         d="M94,176l-21,39"
         stroke-width="20"
         stroke="#000000"
         fill="none" />
      <path
         id="path4464"
         d="M300,19c0,10.5-22.6,19-50.5,19S199,29.5,199,19s22.6-19,50.5-19S300,8.5,300,19z" />
      <path
         id="path4466"
         d="M112,216l-16-38L64,88c0,0-9-8-4-35s16-24,16-24"
         stroke-width="20"
         stroke="#000000"
         ill="none" />
    </symbol>
    <inkscape:perspective
       id="perspective4471"
       inkscape:persp3d-origin="372.04724 : 350.78739 : 1"
       inkscape:vp_z="744.09448 : 526.18109 : 1"
       inkscape:vp_y="0 : 1000 : 0"
       inkscape:vp_x="0 : 526.18109 : 1"
       sodipodi:type="inkscape:persp3d" />
    <inkscape:perspective
       id="perspective4668"
       inkscape:persp3d-origin="6 : 4 : 1"
       inkscape:vp_z="12 : 6 : 1"
       inkscape:vp_y="0 : 1000 : 0"
       inkscape:vp_x="0 : 6 : 1"
       sodipodi:type="inkscape:persp3d" />
    <inkscape:perspective
       id="perspective5915"
       inkscape:persp3d-origin="0.5 : 0.33333333 : 1"
       inkscape:vp_z="1 : 0.5 : 1"
       inkscape:vp_y="0 : 1000 : 0"
       inkscape:vp_x="0 : 0.5 : 1"
       sodipodi:type="inkscape:persp3d" />
    <inkscape:perspective
       id="perspective6076"
       inkscape:persp3d-origin="0.5 : 0.33333333 : 1"
       inkscape:vp_z="1 : 0.5 : 1"
       inkscape:vp_y="0 : 1000 : 0"
       inkscape:vp_x="0 : 0.5 : 1"
       sodipodi:type="inkscape:persp3d" />
    <inkscape:perspective
       id="perspective6243"
       inkscape:persp3d-origin="0.5 : 0.33333333 : 1"
       inkscape:vp_z="1 : 0.5 : 1"
       inkscape:vp_y="0 : 1000 : 0"
       inkscape:vp_x="0 : 0.5 : 1"
       sodipodi:type="inkscape:persp3d" />
  </defs>
  <g
     id="g1327">
    <path
       d="M 66.275,1.768 C 24.94,1.768 1.704,23.139 1.704,66.804 L 1.704,516.927 C 1.704,557.771 22.599,579.156 63.896,579.156 L 515.92,579.156 C 557.227,579.156 578.149,558.841 578.149,516.927 L 578.149,66.804 C 578.149,24.203 557.227,1.768 514.628,1.768 C 514.624,1.768 66.133,1.625 66.275,1.768 z"
       style="fill:#111111;stroke:#eeeeee;stroke-width:3.40799999"
       id="path1329" />
  </g>
  <g
     id="layer3"
     inkscape:label="Layout"
     style="display:none;stroke:#757575;stroke-opacity:1"
     transform="matrix(48.14969,0,0,48.14969,-536.27327,-33.306752)">
    <rect
       style="fill:none;stroke:#757575;stroke-width:0.10000000000000001;stroke-miterlimit:4;stroke-dasharray:none;stroke-opacity:1;display:inline"
       id="rect4134"
       width="10"
       height="10"
       x="1"
       y="1" />
    <rect
       style="fill:none;stroke:#757575;stroke-width:0.10000000000000001;stroke-miterlimit:4;stroke-dasharray:none;stroke-opacity:1;display:inline"
       id="rect4136"
       width="8"
       height="8"
       x="2"
       y="2" />
  </g>
  <g
     transform="translate(-9.2012672,4.4650424)"
     id="g2325">
    <line
       style="fill:none;stroke:#ffffff;stroke-width:50;stroke-linecap:round;stroke-linejoin:round"
       x1="221.745"
       y1="147.005"
       x2="155.745"
       y2="491.85501"
       id="line6215" />
    <line
       style="fill:none;stroke:#ffffff;stroke-width:35;stroke-linecap:round;stroke-linejoin:round"
       x1="79.945"
       y1="499.45499"
       x2="79.945"
       y2="211.905"
       id="line6217" />
    <line
       style="fill:none;stroke:#ffffff;stroke-width:35;stroke-linecap:round;stroke-linejoin:round"
       x1="82.146004"
       y1="255.08"
       x2="207.545"
       y2="255.08"
       id="line6219" />
    <line
       style="fill:none;stroke:#ffffff;stroke-width:50;stroke-linecap:round;stroke-linejoin:round"
       x1="382.54501"
       y1="147.005"
       x2="448.54599"
       y2="491.85501"
       id="line6221" />
    <line
       style="fill:none;stroke:#ffffff;stroke-width:35;stroke-linecap:round;stroke-linejoin:round"
       x1="524.34601"
       y1="499.45499"
       x2="524.34601"
       y2="211.905"
       id="line6223" />
    <line
       style="fill:none;stroke:#ffffff;stroke-width:35;stroke-linecap:round;stroke-linejoin:round"
       x1="522.146"
       y1="255.08"
       x2="396.745"
       y2="255.08"
       id="line6225" />
  </g>
</svg>
